places/scalable/folder-yellow-owncloud.svg

<svg xmlns="http://www.w3.org/2000/svg" style="isolation:isolate" width="256" height="256"><path d="M53.039 21C16.724 21 13 23.055 13 59.371v52.167h230V79.563c0-36.316-3.724-42.102-40.039-42.102h-89.336L97.198 21H53.039z" fill="#eab305"/><path d="M53.039 70.384C16.722 70.384 13 74.114 13 110.429v84.524C13 231.269 16.722 235 53.039 235h149.922c36.317 0 40.039-3.731 40.039-40.047V93.969c0-36.316-3.722-40.047-40.039-40.047H119.53l-16.438 16.462H53.039z" fill="#fdc92b"/><linearGradient id="a" y1=".5" x2="0" y2="-.5" gradientTransform="matrix(230 0 0 181.078 13 53.922)" gradientUnits="userSpaceOnUse"><stop offset="0%" stop-opacity=".07" stop-color="#fff"/><stop offset="67.282%" stop-opacity="0" stop-color="#fcefe8"/></linearGradient><path d="M53.039 70.384C16.722 70.384 13 74.114 13 110.429v84.524C13 231.269 16.722 235 53.039 235h149.922c36.317 0 40.039-3.731 40.039-40.047V93.969c0-36.316-3.722-40.047-40.039-40.047H119.53l-16.438 16.462H53.039z" fill="url(#a)"/><g opacity=".4"><radialGradient id="b" fx=".5" fy=".136" cx=".5" cy=".5" r=".272" gradientTransform="matrix(230 0 0 60.62 13 21)" gradientUnits="userSpaceOnUse"><stop offset="0%" stop-color="#fff"/><stop offset="100%" stop-opacity=".204" stop-color="#fff"/></radialGradient><path d="M53.039 21C16.724 21 13 23.055 13 59.371v2.059c0-36.316 3.724-38.373 40.039-38.373h44.159l16.427 16.461h89.336c36.315 0 40.039 5.786 40.039 42.102v-2.057c0-36.316-3.724-42.102-40.039-42.102h-89.336L97.198 21H53.039z" fill="url(#b)"/></g><g opacity=".4"><radialGradient id="c" fx=".482" fy=".211" cx=".5" cy=".5" r=".272" gradientTransform="matrix(230 0 0 58.565 13 53.922)" gradientUnits="userSpaceOnUse"><stop offset="0%" stop-color="#fff"/><stop offset="100%" stop-opacity=".204" stop-color="#fff"/></radialGradient><path d="M119.53 53.922l-16.438 16.462H53.039C16.724 70.384 13 74.112 13 110.427v2.06c0-36.316 3.724-40.046 40.039-40.046h50.053l16.438-16.46h83.431c36.315 0 40.039 3.727 40.039 40.043v-2.057c0-36.316-3.724-40.045-40.039-40.045H119.53z" fill="url(#c)"/></g><path d="M243 167.096l-65.715 65.845h25.676c36.315 0 40.039-3.727 40.039-40.043v-25.802z" fill="#FFF" opacity=".1"/><path d="M13 192.898v2.057C13 231.271 16.724 235 53.039 235h149.922c36.315 0 40.039-3.729 40.039-40.045v-2.057c0 36.316-3.724 40.043-40.039 40.043H53.039c-36.315 0-40.039-3.727-40.039-40.043z" opacity=".2"/><g opacity=".62" fill-rule="evenodd" fill="#333"><path d="M81.856 183.902c-4.317-.683-8.04-2.898-10.604-6.311-4.851-6.454-4.214-15.38 1.505-21.114 2.778-2.786 6.336-4.417 10.09-4.628l1.632-.091-.091.378c-.58 2.414-.538 6.539.093 8.967 1.172 4.516 3.257 7.722 7.121 10.952.333.278.336.316.121 1.309-.47 2.174-.184 4.502.816 6.639.562 1.202.57 1.242.277 1.471-.731.574-3.279 1.684-4.706 2.05-1.755.451-4.678.627-6.254.378z"/><path d="M91.535 169.345c-2.239-2.049-4.116-5.117-4.97-8.122-2.625-9.239 2.76-18.904 12.034-21.598 2.26-.657 5.866-.974 5.985-.527.838 3.152 1.42 4.567 2.665 6.482l.876 1.348-.685 1.061c-1.672 2.596-2.956 5.787-3.578 8.895-.292 1.461-.353 2.291-.356 4.796l-.003 3.029h-1.349c-3.543 0-6.996 1.877-8.877 4.826-.295.462-.554.839-.577.839-.022 0-.546-.463-1.165-1.029z"/><path d="M99.988 183.974c-1.393-.376-2.688-1.161-3.868-2.343-1.823-1.829-2.586-3.688-2.582-6.293.006-4.437 3.342-8.098 7.884-8.653 1.273-.155 2.628.032 2.631.363.001.142.284 1.097.629 2.124 1.056 3.148 2.66 6.009 4.687 8.362.522.606.951 1.215.954 1.353.009.405-1.127 2.043-2.031 2.929-.96.94-2.522 1.817-3.857 2.166-1.143.298-3.325.294-4.447-.008zM124.218 183.812c-9.243-1.655-16.356-8.56-18.383-17.848-.416-1.907-.416-7.055 0-8.961 1.946-8.916 8.511-15.592 17.363-17.656 1.761-.411 5.904-.563 7.898-.29 4.198.574 8.398 2.492 11.667 5.325 3.981 3.452 6.682 8.309 7.519 13.526.489 3.048.239 6.964-.641 10.029-.441 1.535-1.726 4.348-2.635 5.765-3.416 5.33-9.16 9.105-15.412 10.13-1.78.292-5.693.281-7.376-.02z"/><path d="M108.87 144.409c-3.17-4.987-3.481-10.911-.848-16.148.72-1.433 2.211-3.416 3.365-4.477 1.082-.995 3.144-2.37 4.368-2.913 3.949-1.751 8.711-1.829 12.684-.209 3.733 1.522 7.22 4.957 8.733 8.6.937 2.258 1.142 3.334 1.157 6.099.008 1.384-.041 2.778-.109 3.097l-.123.579-.873-.387c-1.392-.618-4.061-1.308-6.1-1.579-2.181-.29-5.327-.218-7.455.169a24.745 24.745 0 0 0-12.956 6.754l-1.293 1.281-.55-.866zM93.633 138.783c-1.426-3.185-.736-6.829 1.768-9.337 2.426-2.43 6.019-3.143 9.055-1.797 1.365.605 1.336.538.834 1.962-.621 1.758-.961 3.735-.984 5.71l-.02 1.691-1.431.001c-2.525 0-5.586.719-7.785 1.828-.581.293-1.082.532-1.114.532-.033 0-.178-.265-.323-.59zM148.972 148.693c-1.65-2.892-4.711-6.033-7.781-7.983-1.102-.7-1.217-.819-1.144-1.186.313-1.571.445-3.425.355-5.013l-.101-1.795 1.473.097c.81.054 2.029.212 2.709.353 4.694.97 8.867 4.233 11.048 8.64.777 1.569 1.567 4.19 1.567 5.197v.508l-1.066.1c-1.778.165-3.63.721-6.389 1.915-.086.038-.388-.337-.671-.833zM156.235 184.36c-3.277-.411-6.841-2.04-9.281-4.243-1.504-1.358-1.49-1.21-.243-2.7 5.189-6.197 7.03-14.239 5.056-22.077-.242-.961-.651-2.25-.909-2.866l-.469-1.119.804-.348c5.797-2.506 11.952-2.003 17.042 1.393 3.469 2.314 6.22 6.233 7.246 10.321.413 1.645.562 5.085.299 6.891-.503 3.45-2.12 6.738-4.616 9.384-3.874 4.109-9.322 6.066-14.929 5.364zM177.073 183.036c-1.493-.403-3.725-1.755-4.168-2.524-.08-.14.172-.577.738-1.28 2.755-3.422 4.328-7.844 4.328-12.167v-1.24l.552-.104c.669-.126 2.049.023 3.215.346 2.56.71 4.906 2.918 5.832 5.488.417 1.156.563 3.556.294 4.851-.621 2.999-3.352 5.844-6.368 6.631-1.135.297-3.323.296-4.423-.001z"/></g></svg>

<?xml version="1.0" standalone="no"?><!-- Generator: Gravit.io -->
<svg xmlns="http://www.w3.org/2000/svg" 
  xmlns:xlink="http://www.w3.org/1999/xlink" style="isolation:isolate" viewBox="0 0 256 256" width="256" height="256">
  <switch>
    <g>
      <g id="folder">
        <path d=" M 53.039 21 C 16.724 21 13 23.055 13 59.371 L 13 111.538 L 243 111.538 L 243 79.563 C 243 43.247 239.276 37.461 202.961 37.461 L 113.625 37.461 L 97.198 21 L 53.039 21 Z " id="orange" fill="#eab305"/>
        <path d=" M 53.039 70.384 C 16.722 70.384 13 74.114 13 110.429 L 13 194.953 C 13 231.269 16.722 235 53.039 235 L 202.961 235 C 239.278 235 243 231.269 243 194.953 L 243 93.969 C 243 57.653 239.278 53.922 202.961 53.922 L 119.53 53.922 L 103.092 70.384 L 53.039 70.384 Z " id="change-color-easy" fill="#fdc92b"/>
        <linearGradient id="_lgradient_27" x1="0" y1="0.5" x2="2.83276944882399e-16" y2="-0.5" gradientTransform="matrix(230,0,0,181.078,13,53.922)" gradientUnits="userSpaceOnUse">
          <stop offset="0%" stop-opacity="0.07" style="stop-color:rgb(255,255,255)"/>
          <stop offset="67.28219512106674%" stop-opacity="0" style="stop-color:rgb(252,239,232)"/>
        </linearGradient>
        <path d=" M 53.039 70.384 C 16.722 70.384 13 74.114 13 110.429 L 13 194.953 C 13 231.269 16.722 235 53.039 235 L 202.961 235 C 239.278 235 243 231.269 243 194.953 L 243 93.969 C 243 57.653 239.278 53.922 202.961 53.922 L 119.53 53.922 L 103.092 70.384 L 53.039 70.384 Z " id="gradient white" fill="url(#_lgradient_27)"/>
        <g opacity="0.4">
          <radialGradient id="_rgradient_53" fx="0.5000000213726793" fy="0.13577386516315215" cx="0.5" cy="0.5" r="0.27154159375000003" gradientTransform="matrix(230,0,0,60.62,13,21)" gradientUnits="userSpaceOnUse">
            <stop offset="0%" stop-opacity="1" style="stop-color:rgb(255,255,255)"/>
            <stop offset="100%" stop-opacity="0.20392157" style="stop-color:rgb(255,255,255)"/>
          </radialGradient>
          <path d=" M 53.039 21 C 16.724 21 13 23.055 13 59.371 L 13 61.43 C 13 25.114 16.724 23.057 53.039 23.057 L 97.198 23.057 L 113.625 39.518 L 202.961 39.518 C 239.276 39.518 243 45.304 243 81.62 L 243 79.563 C 243 43.247 239.276 37.461 202.961 37.461 L 113.625 37.461 L 97.198 21 L 53.039 21 Z " id="white" fill="url(#_rgradient_53)"/>
        </g>
        <g opacity="0.4">
          <radialGradient id="_rgradient_54" fx="0.48214287810452355" fy="0.2108154047287485" cx="0.5" cy="0.5" r="0.27154159375" gradientTransform="matrix(230,0,0,58.565,13,53.922)" gradientUnits="userSpaceOnUse">
            <stop offset="0%" stop-opacity="1" style="stop-color:rgb(255,255,255)"/>
            <stop offset="100%" stop-opacity="0.20392157" style="stop-color:rgb(255,255,255)"/>
          </radialGradient>
          <path d=" M 119.53 53.922 L 103.092 70.384 L 53.039 70.384 C 16.724 70.384 13 74.112 13 110.427 L 13 112.487 C 13 76.171 16.724 72.441 53.039 72.441 L 103.092 72.441 L 119.53 55.981 L 202.961 55.981 C 239.276 55.981 243 59.708 243 96.024 L 243 93.967 C 243 57.651 239.276 53.922 202.961 53.922 L 119.53 53.922 Z " id="white" fill="url(#_rgradient_54)"/>
        </g>
        <g opacity="0.1">
          <path d=" M 243 167.096 L 177.285 232.941 L 202.961 232.941 C 239.276 232.941 243 229.214 243 192.898 L 243 167.096 Z " id="white" fill="rgb(255,255,255)"/>
        </g>
        <g opacity="0.2">
          <path d=" M 13 192.898 L 13 194.955 C 13 231.271 16.724 235 53.039 235 L 202.961 235 C 239.276 235 243 231.271 243 194.955 L 243 192.898 C 243 229.214 239.276 232.941 202.961 232.941 L 53.039 232.941 C 16.724 232.941 13 229.214 13 192.898 Z " id="dark" fill="rgb(0,0,0)"/>
        </g>
      </g>
      <g id="owncloud" style="opacity:0.62;">
        <path d=" M 81.856 183.902 C 77.539 183.219 73.816 181.004 71.252 177.591 C 66.401 171.137 67.038 162.211 72.757 156.477 C 75.535 153.691 79.093 152.06 82.847 151.849 L 84.479 151.758 L 84.388 152.136 C 83.808 154.55 83.85 158.675 84.481 161.103 C 85.653 165.619 87.738 168.825 91.602 172.055 C 91.935 172.333 91.938 172.371 91.723 173.364 C 91.253 175.538 91.539 177.866 92.539 180.003 C 93.101 181.205 93.109 181.245 92.816 181.474 C 92.085 182.048 89.537 183.158 88.11 183.524 C 86.355 183.975 83.432 184.151 81.856 183.902 Z " fill-rule="evenodd" id="path830" fill="#333333"/>
        <path d=" M 91.535 169.345 C 89.296 167.296 87.419 164.228 86.565 161.223 C 83.94 151.984 89.325 142.319 98.599 139.625 C 100.859 138.968 104.465 138.651 104.584 139.098 C 105.422 142.25 106.004 143.665 107.249 145.58 L 108.125 146.928 L 107.44 147.989 C 105.768 150.585 104.484 153.776 103.862 156.884 C 103.57 158.345 103.509 159.175 103.506 161.68 L 103.503 164.709 L 102.154 164.709 C 98.611 164.709 95.158 166.586 93.277 169.535 C 92.982 169.997 92.723 170.374 92.7 170.374 C 92.678 170.374 92.154 169.911 91.535 169.345 L 91.535 169.345 Z " fill-rule="evenodd" id="path832" fill="#333333"/>
        <path d=" M 99.988 183.974 C 98.595 183.598 97.3 182.813 96.12 181.631 C 94.297 179.802 93.534 177.943 93.538 175.338 C 93.544 170.901 96.88 167.24 101.422 166.685 C 102.695 166.53 104.05 166.717 104.053 167.048 C 104.054 167.19 104.337 168.145 104.682 169.172 C 105.738 172.32 107.342 175.181 109.369 177.534 C 109.891 178.14 110.32 178.749 110.323 178.887 C 110.332 179.292 109.196 180.93 108.292 181.816 C 107.332 182.756 105.77 183.633 104.435 183.982 C 103.292 184.28 101.11 184.276 99.988 183.974 L 99.988 183.974 Z " fill-rule="evenodd" id="path834" fill="#333333"/>
        <path d=" M 124.218 183.812 C 114.975 182.157 107.862 175.252 105.835 165.964 C 105.419 164.057 105.419 158.909 105.835 157.003 C 107.781 148.087 114.346 141.411 123.198 139.347 C 124.959 138.936 129.102 138.784 131.096 139.057 C 135.294 139.631 139.494 141.549 142.763 144.382 C 146.744 147.834 149.445 152.691 150.282 157.908 C 150.771 160.956 150.521 164.872 149.641 167.937 C 149.2 169.472 147.915 172.285 147.006 173.702 C 143.59 179.032 137.846 182.807 131.594 183.832 C 129.814 184.124 125.901 184.113 124.218 183.812 L 124.218 183.812 Z " fill-rule="evenodd" id="path836" fill="#333333"/>
        <path d=" M 108.87 144.409 C 105.7 139.422 105.389 133.498 108.022 128.261 C 108.742 126.828 110.233 124.845 111.387 123.784 C 112.469 122.789 114.531 121.414 115.755 120.871 C 119.704 119.12 124.466 119.042 128.439 120.662 C 132.172 122.184 135.659 125.619 137.172 129.262 C 138.109 131.52 138.314 132.596 138.329 135.361 C 138.337 136.745 138.288 138.139 138.22 138.458 L 138.097 139.037 L 137.224 138.65 C 135.832 138.032 133.163 137.342 131.124 137.071 C 128.943 136.781 125.797 136.853 123.669 137.24 C 118.778 138.131 114.248 140.493 110.713 143.994 L 109.42 145.275 L 108.87 144.409 Z " fill-rule="evenodd" id="path838" fill="#333333"/>
        <path d=" M 93.633 138.783 C 92.207 135.598 92.897 131.954 95.401 129.446 C 97.827 127.016 101.42 126.303 104.456 127.649 C 105.821 128.254 105.792 128.187 105.29 129.611 C 104.669 131.369 104.329 133.346 104.306 135.321 L 104.286 137.012 L 102.855 137.013 C 100.33 137.013 97.269 137.732 95.07 138.841 C 94.489 139.134 93.988 139.373 93.956 139.373 C 93.923 139.373 93.778 139.108 93.633 138.783 L 93.633 138.783 Z " fill-rule="evenodd" id="path840" fill="#333333"/>
        <path d=" M 148.972 148.693 C 147.322 145.801 144.261 142.66 141.191 140.71 C 140.089 140.01 139.974 139.891 140.047 139.524 C 140.36 137.953 140.492 136.099 140.402 134.511 L 140.301 132.716 L 141.774 132.813 C 142.584 132.867 143.803 133.025 144.483 133.166 C 149.177 134.136 153.35 137.399 155.531 141.806 C 156.308 143.375 157.098 145.996 157.098 147.003 L 157.098 147.511 L 156.032 147.611 C 154.254 147.776 152.402 148.332 149.643 149.526 C 149.557 149.564 149.255 149.189 148.972 148.693 L 148.972 148.693 Z " fill-rule="evenodd" id="path842" fill="#333333"/>
        <path d=" M 156.235 184.36 C 152.958 183.949 149.394 182.32 146.954 180.117 C 145.45 178.759 145.464 178.907 146.711 177.417 C 151.9 171.22 153.741 163.178 151.767 155.34 C 151.525 154.379 151.116 153.09 150.858 152.474 L 150.389 151.355 L 151.193 151.007 C 156.99 148.501 163.145 149.004 168.235 152.4 C 171.704 154.714 174.455 158.633 175.481 162.721 C 175.894 164.366 176.043 167.806 175.78 169.612 C 175.277 173.062 173.66 176.35 171.164 178.996 C 167.29 183.105 161.842 185.062 156.235 184.36 L 156.235 184.36 Z " fill-rule="evenodd" id="path844" fill="#333333"/>
        <path d=" M 177.073 183.036 C 175.58 182.633 173.348 181.281 172.905 180.512 C 172.825 180.372 173.077 179.935 173.643 179.232 C 176.398 175.81 177.971 171.388 177.971 167.065 L 177.971 165.825 L 178.523 165.721 C 179.192 165.595 180.572 165.744 181.738 166.067 C 184.298 166.777 186.644 168.985 187.57 171.555 C 187.987 172.711 188.133 175.111 187.864 176.406 C 187.243 179.405 184.512 182.25 181.496 183.037 C 180.361 183.334 178.173 183.333 177.073 183.036 L 177.073 183.036 Z " fill-rule="evenodd" id="path846" fill="#333333"/>
      </g>
    </g>
  </switch>
</svg>
